Obsidian-SemiLight/actions/16s/text-flow-into-frame.svg

<svg viewBox="0 0 16 16" xmlns="http://www.w3.org/2000/svg"><path d="m2 2v12h8v-1h-7v-10h10v4h1v-5zm2 2v1h8v-1zm0 3v1h4v-1zm0 3v1h6v-1z" fill="#4d4d4d"/><path d="m9 7v1h1.5c1.385 0 2.5 1.115 2.5 2.5 0 .819-.396 1.545-1 2v-1.5h-1v3h3v-1h-1.063c.658-.632 1.063-1.51 1.063-2.5 0-1.939-1.561-3.5-3.5-3.5h-.5z" fill="#1d99f3"/></svg>

<svg xmlns="http://www.w3.org/2000/svg" viewBox="0 0 16 16">
  <defs id="defs3051">
    <style type="text/css" id="current-color-scheme">
      .ColorScheme-Text {
        color:#4d4d4d;
      }
      </style>
  </defs>
  <path 
     style="fill:currentColor;fill-opacity:1;stroke:none" 
     d="M 2 2 L 2 14 L 10 14 L 10 13 L 3 13 L 3 3 L 13 3 L 13 7 L 14 7 L 14 2 L 2 2 z M 4 4 L 4 5 L 12 5 L 12 4 L 4 4 z M 4 7 L 4 8 L 8 8 L 8 7 L 4 7 z M 4 10 L 4 11 L 10 11 L 10 10 L 4 10 z "
     class="ColorScheme-Text"/>
  <path
     style="fill:#1d99f3"
     d="m 9,7 0,1 1.5,0 c 1.385,0 2.5,1.115 2.5,2.5 0,0.819 -0.396,1.545 -1,2 l 0,-1.5 -1,0 0,3 3,0 0,-1 -1.063,0 C 13.595,12.368 14,11.49 14,10.5 14,8.561 12.439,7 10.5,7 L 10,7 Z" />
</svg>
